X:84
T:The Showman's Fancy
N:Hornpipe   Allan's #84  pg21
N:Trad/Anon
N:CONVERTED FROM NOTEWORTHY COMPOSER  (WWW.NOTEWORTHYSOFTWARE.COM) BY
N:ABC2NWC (HTTP://MEMBERS.AOL.COM/ABACUSMUSIC/), WITH
Z: (INTO NWC) VINCE BRENNAN 2002   (WWW.SOSYOURMOM.COM)
I:abc2nwc/Tune-O-Tron/Acrobat5/Noteworthy
M:4/4
L:1/8
K:D
((3FG^G)|A3/2^G/2A3/2B/2A3/2d/2f3/2d/2|B3/2d/2g3/2f/2 e3/2d/2c3/2B/2|A3/2^G/2A3/2B/2 A3/2F/2D3/2F/2|E3/2^D/2E3/2F/2 E2 ((3FG^G)|
A3/2^G/2A3/2B/2 A3/2d/2f3/2d/2|B3/2d/2g3/2f/2 e3/2d/2c3/2B/2|A3/2d/2f3/2d/2 g3/2e/2c3/2e/2|d3/2e/2d3/2c/2 d2:|
|: ((3cd^d)|e3/2^d/2e3/2f/2g3/2e/2c3/2A/2|d3/2c/2d3/2e/2 f3/2d/2A3/2f/2| ((3gag)  ((3fgf)  ((3efe)  ((3ded)| ((3cdc)  ((3BcB) A2 ((3FG^G)|
A3/2^G/2A3/2B/2 A3/2d/2f3/2d/2|B3/2d/2g3/2f/2 e3/2d/2c3/2B/2|A3/2d/2f3/2e/2 g3/2e/2c3/2e/2|d3/2e/2d3/2c/2 d2:|
